packages/sources/icons/src/vitamix/slack-fill.svg

<svg width="16" height="16" viewBox="0 0 16 16" xmlns="http://www.w3.org/2000/svg"><path fill-rule="evenodd" clip-rule="evenodd" d="M6.32409 4.35134C5.60104 4.34877 5.01562 3.76306 5.01343 3.04C5.01343 2.318 5.60276 1.72867 6.32476 1.72867C7.04676 1.72867 7.63676 2.318 7.63676 3.04V4.352L6.32409 4.35134ZM3.04009 10.9867C3.76315 10.9845 4.34886 10.399 4.35143 9.67599L4.35209 8.36333H3.04009C2.31809 8.36333 1.72876 8.95333 1.72876 9.67532C1.73096 10.3986 2.31678 10.9845 3.04009 10.9867ZM6.32408 8.364C5.60208 8.364 5.01275 8.954 5.01275 9.676V12.9607C5.01495 13.684 5.60077 14.2698 6.32408 14.272C7.04766 14.2702 7.63389 13.6842 7.63609 12.9607V9.676C7.63609 8.954 7.04608 8.364 6.32408 8.364ZM7.63609 6.32399C7.63609 5.60199 7.04609 5.01266 6.32409 5.01266H3.04009C2.31809 5.01266 1.72876 5.60199 1.72876 6.32399C1.73059 7.04757 2.31652 7.63379 3.04009 7.63599H6.32409C7.04793 7.63416 7.63426 7.04783 7.63609 6.32399ZM11.6488 6.32399C11.6488 5.60199 12.2388 5.01266 12.9608 5.01266C13.6828 5.01266 14.2721 5.60199 14.2721 6.32399C14.2703 7.04757 13.6844 7.63379 12.9608 7.63599H11.6488V6.32399ZM9.67613 7.636C10.3997 7.6338 10.9856 7.04758 10.9875 6.324V3.04C10.9875 2.318 10.3981 1.72867 9.67613 1.72867C8.95413 1.72867 8.36413 2.318 8.36413 3.04V6.324C8.36596 7.04784 8.9523 7.63417 9.67613 7.636ZM9.67613 11.6487C10.3981 11.6487 10.9875 12.2387 10.9875 12.9607C10.9853 13.684 10.3995 14.2698 9.67613 14.272C8.95255 14.2702 8.36633 13.6842 8.36413 12.9607V11.6487H9.67613ZM8.36413 9.676C8.36633 10.3996 8.95255 10.9855 9.67613 10.9873H12.9608C13.6841 10.9851 14.2699 10.3993 14.2721 9.676C14.2721 8.954 13.6828 8.364 12.9608 8.364H9.67613C8.95413 8.364 8.36413 8.954 8.36413 9.676Z"/></svg>

<svg width="16" height="16" xmlns="http://www.w3.org/2000/svg"><path fill-rule="evenodd" clip-rule="evenodd" d="M6.324 4.351a1.315 1.315 0 0 1-1.31-1.311c0-.722.589-1.311 1.31-1.311.723 0 1.313.589 1.313 1.311v1.312H6.324ZM3.04 10.987a1.315 1.315 0 0 0 1.311-1.311l.001-1.313H3.04c-.722 0-1.311.59-1.311 1.312.002.724.588 1.31 1.311 1.312Zm3.284-2.623c-.722 0-1.311.59-1.311 1.312v3.285c.002.723.588 1.309 1.311 1.311a1.315 1.315 0 0 0 1.312-1.311V9.676c0-.722-.59-1.312-1.312-1.312Zm1.312-2.04c0-.722-.59-1.311-1.312-1.311H3.04c-.722 0-1.311.589-1.311 1.311.002.724.588 1.31 1.311 1.312h3.284a1.315 1.315 0 0 0 1.312-1.312Zm4.013 0c0-.722.59-1.311 1.312-1.311.722 0 1.311.589 1.311 1.311a1.315 1.315 0 0 1-1.311 1.312h-1.312V6.324ZM9.676 7.636a1.315 1.315 0 0 0 1.312-1.312V3.04c0-.722-.59-1.311-1.312-1.311-.722 0-1.312.589-1.312 1.311v3.284c.002.724.588 1.31 1.312 1.312Zm0 4.013c.722 0 1.312.59 1.312 1.312a1.315 1.315 0 0 1-1.312 1.311 1.315 1.315 0 0 1-1.312-1.311v-1.312h1.312ZM8.364 9.676c.002.724.589 1.31 1.312 1.311h3.285a1.315 1.315 0 0 0 1.311-1.311c0-.722-.59-1.312-1.311-1.312H9.676c-.722 0-1.312.59-1.312 1.312Z"/></svg>
